tools/download-figma-icons/icons/outlined-medium/heat.svg

<svg width="24" height="24" viewBox="0 0 24 24" fill="none" xmlns="http://www.w3.org/2000/svg">
<path fill-rule="evenodd" clip-rule="evenodd" d="M15.8274 11.0786C17.8321 12.5043 18.6166 13.8926 18.8724 14.9876C19.6036 14.1476 20.3199 13.0466 20.2441 11.9291C20.1811 10.9826 19.5451 10.0736 18.3571 9.22759L14.5989 6.55309C12.5949 5.12734 11.8104 3.73909 11.5539 2.64409C10.8241 3.48409 10.1064 4.58584 10.1821 5.70334C10.2459 6.64909 10.8811 7.55809 12.0699 8.40409L15.8274 11.0786ZM19.2271 8.00583C20.7999 9.12558 21.6459 10.4111 21.7411 11.8278C21.9069 14.2893 19.7177 16.3398 18.7824 17.2158L18.7824 17.2158L18.5664 17.4198C18.4209 17.5601 18.2326 17.6313 18.0444 17.6313C17.8884 17.6313 17.7316 17.5833 17.5996 17.4851C17.3041 17.2683 17.2089 16.8693 17.3754 16.5423C17.4046 16.4771 18.2071 14.6126 14.9574 12.3003L11.1999 9.62583C9.62713 8.50608 8.78113 7.22058 8.68588 5.80383C8.52013 3.34383 10.7079 1.29258 11.6424 0.417333L11.8599 0.211833C12.1231 -0.043167 12.5326 -0.070167 12.8266 0.145833C13.1221 0.363333 13.2174 0.761583 13.0516 1.08858C13.0216 1.15458 12.2199 3.01908 15.4689 5.33133L19.2271 8.00583ZM9.40116 17.447C11.4059 18.8727 12.1897 20.261 12.4462 21.356C13.1774 20.516 13.8937 19.4142 13.8179 18.2967C13.7542 17.351 13.1189 16.442 11.9309 15.596L8.17266 12.9215C6.16791 11.4957 5.38416 10.1075 5.12766 9.01249C4.39716 9.85249 3.68016 10.9535 3.75591 12.071C3.81891 13.0175 4.45491 13.9265 5.64366 14.7725L9.40116 17.447ZM9.04266 11.6997L12.8009 14.3742C14.3729 15.494 15.2189 16.7795 15.3142 18.1962C15.4799 20.6562 13.2922 22.7075 12.3577 23.5827L12.1402 23.7882C11.9954 23.9285 11.8064 23.9997 11.6182 23.9997C11.4622 23.9997 11.3054 23.9517 11.1734 23.8542C10.8779 23.6367 10.7827 23.2385 10.9484 22.9115C10.9784 22.8455 11.7809 20.9802 8.53116 18.6687L4.77366 15.9942C3.20016 14.8745 2.35416 13.589 2.25891 12.1722C2.09317 9.71079 4.28232 7.66033 5.2176 6.78429L5.21766 6.78424L5.43366 6.58024C5.69841 6.32449 6.10791 6.29824 6.40041 6.51499C6.69591 6.73174 6.79116 7.12999 6.62541 7.45774C6.59541 7.52299 5.79291 9.38749 9.04266 11.6997Z" fill="black"/>
</svg>

<svg xmlns="http://www.w3.org/2000/svg" width="24" height="24" fill="none" viewBox="0 0 24 24"><path fill="currentColor" fill-rule="evenodd" d="M15.827 11.079c2.005 1.425 2.79 2.814 3.045 3.909.732-.84 1.448-1.941 1.372-3.059-.063-.946-.699-1.855-1.887-2.701L14.6 6.553c-2.004-1.426-2.789-2.814-3.045-3.909-.73.84-1.448 1.942-1.372 3.06.064.945.7 1.854 1.888 2.7zm3.4-3.073c1.573 1.12 2.419 2.405 2.514 3.822.166 2.461-2.023 4.512-2.959 5.388l-.216.204a.751.751 0 0 1-1.19-.878c.029-.065.831-1.93-2.419-4.242L11.2 9.626C9.627 8.506 8.78 7.22 8.686 5.804c-.166-2.46 2.022-4.511 2.956-5.387l.218-.205a.752.752 0 0 1 1.192.877c-.03.066-.832 1.93 2.417 4.242zm-9.826 9.441c2.005 1.426 2.789 2.814 3.045 3.909.731-.84 1.448-1.942 1.372-3.06-.064-.945-.7-1.854-1.887-2.7l-3.758-2.674c-2.005-1.426-2.789-2.815-3.045-3.91-.73.84-1.448 1.941-1.372 3.059.063.947.699 1.856 1.888 2.702zM9.043 11.7l3.758 2.674c1.572 1.12 2.418 2.405 2.513 3.822.166 2.46-2.022 4.511-2.956 5.387l-.218.205a.75.75 0 0 1-1.192-.876c.03-.066.833-1.932-2.417-4.243l-3.757-2.675c-1.574-1.12-2.42-2.405-2.515-3.822-.166-2.461 2.023-4.512 2.959-5.388l.216-.204a.75.75 0 0 1 1.191.878c-.03.065-.832 1.93 2.418 4.242" clip-rule="evenodd"/></svg>
